pix_core/t/approve.svg

<!DOCTYPE svg PUBLIC "-//W3C//DTD SVG 1.1//EN" "http://www.w3.org/Graphics/SVG/1.1/DTD/svg11.dtd" [
	<!ENTITY ns_flows "http://ns.adobe.com/Flows/1.0/">
]><svg xmlns="http://www.w3.org/2000/svg" width="12" height="12" viewBox="0 0 12 12" preserveAspectRatio="xMinYMid meet" overflow="visible"><path d="M11.4.6l-.9-.5c-.4-.2-1-.1-1.3.4l-4.5 7.7-2.7-1.6c-.5-.3-1.1-.1-1.4.4l-.5.8c-.2.5-.1 1.1.4 1.4l4.5 2.6c.1.1.3.1.4.1.4.1.8-.1 1-.5l5.4-9.4c.3-.5.1-1.1-.4-1.4z" fill="#888"/></svg>

<?xml version="1.0" encoding="utf-8"?>
<!-- Generator: Adobe Illustrator 15.1.0, SVG Export Plug-In  -->
<!DOCTYPE svg PUBLIC "-//W3C//DTD SVG 1.1//EN" "http://www.w3.org/Graphics/SVG/1.1/DTD/svg11.dtd" [
	<!ENTITY ns_flows "http://ns.adobe.com/Flows/1.0/">
]>
<svg version="1.1"
	 xmlns="http://www.w3.org/2000/svg" xmlns:xlink="http://www.w3.org/1999/xlink" xmlns:a="http://ns.adobe.com/AdobeSVGViewerExtensions/3.0/"
	 x="0px" y="0px" width="12px" height="12px" viewBox="0 0 12 12" style="overflow:visible;enable-background:new 0 0 12 12;"
	 xml:space="preserve" preserveAspectRatio="xMinYMid meet">
<defs>
</defs>
<path style="fill:#29a1c4;" d="M11.4,0.6l-0.9-0.5C10.1-0.1,9.5,0,9.2,0.5L4.7,8.2L2,6.6C1.5,6.3,0.9,6.5,0.6,7L0.1,7.8
	C-0.1,8.3,0,8.9,0.5,9.2L5,11.8c0.1,0.1,0.3,0.1,0.4,0.1c0.4,0.1,0.8-0.1,1-0.5L11.8,2C12.1,1.5,11.9,0.9,11.4,0.6z"/>
</svg>
